dist/assets/svg/form/email.svg

<svg xmlns="http://www.w3.org/2000/svg" width="15" height="11" fill="none" viewBox="0 0 15 11"><path fill="#030303" d="M14.443 0.000245271H0.554862C0.481958 8.78986e-05 0.409744 0.0163595 0.342363 0.0481753C0.274982 0.0799912 0.213762 0.126701 0.162211 0.185623C0.11066 0.244546 0.0697941 0.314543 0.0419587 0.391559C0.0141232 0.468575 -0.000136697 0.551124 9.87603e-07 0.634453V10.366C-0.000136697 10.4493 0.0141232 10.5319 0.0419587 10.6089C0.0697941 10.6859 0.11066 10.7559 0.162211 10.8148C0.213762 10.8737 0.274982 10.9204 0.342363 10.9522C0.409744 10.9841 0.481958 11.0004 0.554862 11.0002H14.443C14.516 11.0004 14.5884 10.9841 14.6559 10.9523C14.7234 10.9205 14.7847 10.8738 14.8364 10.8149C14.8882 10.7561 14.9292 10.6861 14.9573 10.6091C14.9853 10.5321 14.9999 10.4494 15 10.366V0.634453C14.9999 0.551012 14.9853 0.468406 14.9573 0.391377C14.9292 0.314347 14.8882 0.244369 14.8364 0.185478C14.7847 0.126587 14.7234 0.0799255 14.6559 0.0481389C14.5884 0.0163523 14.516 8.82793e-05 14.443 0.000245271ZM13.6688 2.88578L7.83908 6.73878H7.37931L1.55173 2.88698C1.48634 2.84354 1.42908 2.7858 1.38322 2.71706C1.33735 2.64832 1.30378 2.56994 1.28443 2.48638C1.26507 2.40281 1.2603 2.31567 1.2704 2.23C1.28049 2.14432 1.30525 2.06177 1.34326 1.98703C1.38127 1.91229 1.43179 1.84686 1.49193 1.79443C1.55207 1.74201 1.62065 1.70364 1.69377 1.68152C1.76688 1.65939 1.84309 1.65394 1.91804 1.66548C1.993 1.67702 2.06523 1.70532 2.13062 1.74876L7.60815 5.37005L13.0857 1.74876C13.1511 1.70532 13.2233 1.67702 13.2983 1.66548C13.3732 1.65394 13.4494 1.65939 13.5225 1.68152C13.5956 1.70364 13.6642 1.74201 13.7244 1.79443C13.7845 1.84686 13.835 1.91229 13.873 1.98703C13.9111 2.06177 13.9358 2.14432 13.9459 2.23C13.956 2.31567 13.9512 2.40281 13.9319 2.48638C13.9125 2.56994 13.8789 2.64832 13.8331 2.71706C13.7872 2.7858 13.73 2.84354 13.6646 2.88698L13.6688 2.88578Z"/></svg>

<svg xmlns="http://www.w3.org/2000/svg" width="15" height="11" fill="none" viewBox="0 0 15 11"><path fill="#030303" d="M14.443 0H.555a.5.5 0 0 0-.213.048.6.6 0 0 0-.18.138.7.7 0 0 0-.12.206A.7.7 0 0 0 0 .634v9.732q0 .126.042.243a.7.7 0 0 0 .12.206.6.6 0 0 0 .18.137Q.445 11 .555 11h13.888a.5.5 0 0 0 .213-.048.6.6 0 0 0 .18-.137.7.7 0 0 0 .121-.206.7.7 0 0 0 .043-.243V.634a.7.7 0 0 0-.043-.243.7.7 0 0 0-.12-.206.6.6 0 0 0-.181-.137.5.5 0 0 0-.213-.048m-.774 2.886-5.83 3.853h-.46L1.552 2.887a.6.6 0 0 1-.169-.17.75.75 0 0 1-.04-.73.6.6 0 0 1 .149-.193.55.55 0 0 1 .202-.112.5.5 0 0 1 .437.067L7.608 5.37l5.478-3.621a.5.5 0 0 1 .437-.067.55.55 0 0 1 .201.112.6.6 0 0 1 .149.193.72.72 0 0 1 .059.5.7.7 0 0 1-.099.23.6.6 0 0 1-.168.17z"/></svg>
